data/sheikah/d.svg

<!-- Generated by IcoMoon.io -->
<svg version="1.1" xmlns="http://www.w3.org/2000/svg" width="1024" height="1024" viewBox="0 0 1024 1024">
<title></title>
<g id="icomoon-ignore">
</g>
<path d="M153.5 273l119.5-119.5h478l119.5 119.5v478l-119.5 119.5v-597.5h-597.5zM153.5 352.5h398.5l119.5 119.5v279l-119.5 119.5h-279l-119.5-119.5h398.5v-279h-398.5v-119.5zM153.5 552h318.5v119.5h-318.5v-119.5z"></path>
</svg>

<svg xmlns="http://www.w3.org/2000/svg" width="1024" height="1024" viewBox="0 0 1024 1024">
  <title/>
  <path d="M153.5 273 273 153.5h478L870.5 273v478L751 870.5V273zm0 79.5H552L671.5 472v279L552 870.5H273L153.5 751H552V472H153.5zm0 199.5H472v119.5H153.5z"/>
</svg>
